img/svg/logo_salt.svg

<svg width="77" height="14" viewBox="0 0 77 14" fill="none" xmlns="http://www.w3.org/2000/svg">
<path fill-rule="evenodd" clip-rule="evenodd" d="M32.7048 10.9764C34.2224 11.0205 35.7244 10.6559 37.0571 9.91985C37.1285 9.8802 37.2046 9.85222 37.3061 9.80557C37.673 10.5339 37.8597 11.3415 37.8501 12.159C37.8616 13.0733 37.8501 13.0919 36.9902 13.3741C35.5422 13.8278 34.028 14.0267 32.5134 13.9619C30.8998 13.9293 29.376 13.619 27.9883 12.77C26.3377 11.7718 25.4156 10.2767 25.1298 8.39213C24.8566 6.89013 25.0167 5.34034 25.5908 3.92792C26.453 1.89406 28.0528 0.760515 30.1391 0.289369C32.6121 -0.288017 35.2057 0.00401796 37.4928 1.11737C37.6103 1.17102 37.7763 1.30396 37.7763 1.39959C37.8041 2.50724 37.5391 3.60231 37.0087 4.57166C36.2249 4.17282 35.4849 3.74832 34.7034 3.40546C33.7746 2.99609 32.7409 2.89722 31.7527 3.12324C30.1321 3.49409 29.1593 4.67895 29.104 6.45157C29.0804 7.09895 29.1455 7.74653 29.2976 8.3758C29.7057 9.9665 31.0266 10.9414 32.7071 10.9858L32.7048 10.9764ZM73.0235 8.54374C72.9516 8.3518 72.8262 8.18509 72.6625 8.06379C72.4989 7.9425 72.3039 7.87183 72.1014 7.86034C71.0733 7.82536 70.0428 7.86034 68.9939 7.86034V10.9088C70.052 10.9088 71.0848 10.9508 72.1106 10.8831C72.2748 10.8493 72.4307 10.7831 72.5696 10.6882C72.7084 10.5934 72.8274 10.4718 72.9198 10.3304C73.0905 10.07 73.1895 9.7682 73.2065 9.45619C73.2235 9.14418 73.158 8.83322 73.0166 8.5554L73.0235 8.54374ZM76.4122 11.4966C75.7206 12.9846 74.4435 13.6774 72.8644 13.7123C70.4808 13.7683 68.0972 13.7287 65.7182 13.731C65.3862 13.731 65.1903 13.5771 65.1903 13.2459C65.1903 10.7362 65.1903 8.22575 65.1903 5.71454C65.1672 5.49762 65.1557 5.29237 65.1534 5.10578C65.1547 4.77476 65.1246 4.44438 65.0635 4.11917C65.0362 3.85923 64.9121 3.61955 64.7164 3.44886C64.5207 3.27816 64.2681 3.18926 64.01 3.20021C63.3184 3.17688 62.6061 3.20021 61.873 3.20021C61.873 3.89993 61.8846 4.59965 61.873 5.29937C61.8431 6.99969 61.7393 8.69301 61.2667 10.335C60.8818 11.6738 60.2547 12.8633 58.89 13.4325C58.37 13.6436 57.8196 13.7681 57.2602 13.801C56.4419 13.8476 55.6166 13.7776 54.7798 13.7567C54.5266 12.7605 54.5393 11.7141 54.8167 10.7245C55.1822 10.7433 55.5484 10.7433 55.914 10.7245C56.336 10.7018 56.7413 10.5504 57.0766 10.2902C57.412 10.0301 57.6616 9.67325 57.7928 9.26678C58.0676 8.49036 58.2472 7.68276 58.3276 6.86208C58.4175 5.7122 58.3506 4.55067 58.3506 3.2935H55.9301C55.8333 2.48183 55.7641 2.32322 55.7641 1.84975C55.732 1.32925 55.7881 0.807033 55.9301 0.305696H56.428C59.1943 0.305696 61.9606 0.284704 64.7384 0.31969C65.4236 0.317351 66.1045 0.430059 66.7532 0.653224C68.0972 1.14303 68.6551 2.2859 68.8717 3.62004C68.9328 4.02918 68.9628 4.44244 68.9617 4.85621V4.98916C68.9706 5.00423 68.9769 5.02083 68.9801 5.03814C70.0636 5.03814 71.0963 5.02181 72.1268 5.03814C72.7177 5.03636 73.3078 5.0863 73.8903 5.18741C75.3748 5.49062 76.32 6.40259 76.6865 7.886C77.0201 9.08074 76.9253 10.3563 76.4191 11.4872L76.4122 11.4966ZM49.5907 6.15536C49.4708 4.54367 48.6686 3.16289 46.5939 3.0556C45.0401 2.9763 43.846 3.53607 43.3389 5.24106C43.2026 5.81928 43.1253 6.41015 43.1084 7.00435C43.1099 7.29195 43.1269 7.57926 43.1591 7.86501C43.3343 9.41372 43.9797 10.7339 45.8585 10.9484C47.5068 11.135 49.0328 10.5706 49.4731 8.61604C49.6326 7.80707 49.6738 6.97877 49.5953 6.15769L49.5907 6.15536ZM51.9905 11.8324C51.0446 12.8584 49.7915 13.5412 48.4242 13.7753C46.2781 14.1881 44.1757 14.0902 42.2208 12.9893C40.425 11.9747 39.4937 10.3583 39.1848 8.35948C38.9355 6.92374 39.0815 5.44627 39.6067 4.08885C40.3836 2.15063 41.822 0.923782 43.8138 0.384997C45.8746 -0.170115 47.9355 -0.118801 49.9134 0.74652C52.0112 1.66082 53.173 3.33315 53.5672 5.5606C53.6502 6.02708 53.6641 6.52154 53.7102 6.99969C53.6802 8.81196 53.233 10.468 51.9858 11.8371" fill="white"/>
<rect y="5" width="20" height="0.999965" fill="white"/>
<rect y="8" width="20" height="0.999965" fill="white"/>
</svg>

<svg width="77" height="14" fill="none" xmlns="http://www.w3.org/2000/svg"><path fill-rule="evenodd" clip-rule="evenodd" d="M32.705 10.976a8.49 8.49 0 004.352-1.056c.072-.04.148-.068.25-.114a5.1 5.1 0 01.543 2.353c.012.914 0 .933-.86 1.215a13.098 13.098 0 01-4.477.588c-1.613-.033-3.137-.343-4.525-1.192-1.65-.998-2.572-2.493-2.858-4.378a8.04 8.04 0 01.46-4.464C26.454 1.894 28.054.76 30.14.289a11.05 11.05 0 017.353.828c.117.054.283.187.283.283a6.282 6.282 0 01-.767 3.172c-.784-.4-1.524-.824-2.306-1.167a4.709 4.709 0 00-2.95-.282c-1.62.371-2.594 1.556-2.649 3.329a7.091 7.091 0 00.194 1.924c.408 1.59 1.729 2.565 3.41 2.61l-.003-.01zm40.319-2.432a1.06 1.06 0 00-.362-.48 1.041 1.041 0 00-.56-.204c-1.029-.035-2.06 0-3.108 0v3.049c1.058 0 2.09.042 3.117-.026a1.266 1.266 0 00.809-.553 1.77 1.77 0 00.097-1.775l.007-.011zm3.388 2.953c-.691 1.488-1.969 2.18-3.548 2.215-2.383.056-4.767.017-7.146.019-.332 0-.528-.154-.528-.485V5.715a6.544 6.544 0 01-.037-.61 5.232 5.232 0 00-.09-.986c-.027-.26-.15-.5-.347-.67a1.01 1.01 0 00-.706-.249c-.692-.023-1.404 0-2.137 0 0 .7.012 1.4 0 2.1-.03 1.7-.134 3.393-.606 5.035-.385 1.339-1.012 2.528-2.377 3.097a5.11 5.11 0 01-1.63.369c-.818.047-1.643-.023-2.48-.044a5.876 5.876 0 01.037-3.032c.365.018.731.018 1.097 0a2.078 2.078 0 001.163-.435c.335-.26.585-.617.716-1.023.275-.777.454-1.584.535-2.405.09-1.15.023-2.311.023-3.569h-2.42c-.098-.811-.167-.97-.167-1.443A4.623 4.623 0 0155.93.306h.498c2.766 0 5.533-.021 8.31.014a6.129 6.129 0 012.015.333c1.344.49 1.902 1.633 2.119 2.967.06.41.09.822.09 1.236v.133a.15.15 0 01.018.05c1.084 0 2.116-.017 3.147 0 .59-.003 1.18.047 1.763.148 1.485.304 2.43 1.216 2.796 2.699a5.319 5.319 0 01-.267 3.601l-.007.01zM49.591 6.155c-.12-1.611-.922-2.992-2.997-3.1-1.554-.079-2.748.481-3.255 2.186a8.773 8.773 0 00-.23 1.763c0 .288.018.575.05.861.175 1.549.82 2.869 2.7 3.083 1.648.187 3.174-.377 3.614-2.332.16-.809.2-1.637.122-2.458l-.004-.003zm2.4 5.677a6.297 6.297 0 01-3.567 1.943c-2.146.413-4.248.315-6.203-.786-1.796-1.014-2.727-2.63-3.036-4.63a8.032 8.032 0 01.422-4.27C40.384 2.15 41.822.924 43.814.385c2.06-.555 4.121-.504 6.1.362 2.097.914 3.259 2.586 3.653 4.814.083.466.097.96.143 1.439-.03 1.812-.477 3.468-1.724 4.837" fill="#fff"/><path fill="#fff" d="M0 5h20v1H0zm0 3h20v1H0z"/></svg>
